icons/folder-go.svg

<svg xmlns="http://www.w3.org/2000/svg" viewBox="0 0 16 16">
	<path
		id="folder"
		fill="#00B8D4" stroke="none"
		d="M 6.922,3.768 6.278,3.232 A 1,1 0 0 0 5.638,3 H 2 A 1,1 0 0 0 1,4 v 8 a 1,1 0 0 0 1,1 h 12 a 1,1 0 0 0 1,-1 V 5 A 1,1 0 0 0 14,4 H 7.562 A 1,1 0 0 1 6.922,3.768"
	/>
	<path
		id="motive"
		fill="#84FFFF" stroke="none" display="inline"
		d="M 4,10 v 0.5 h 2 v -0.5 z m -1.5,1 v 0.5 h 3 v -0.5 z m 1.5,1 v 0.5 h 1.5 v -0.5 z
		M 13.652344,9.0039063 c -0.163621,0.00443 -0.331101,0.023065 -0.5,0.052734 -0.788195,0.138459 -1.370001,0.4686073 -1.853516,1.1015624 -0.450397,0.586803 -0.656332,1.245193 -0.537109,1.990235 0.07948,0.507682 0.324058,0.93718 0.714844,1.273437 0.463644,0.395596 1.01445,0.566892 1.617187,0.580078 0.172211,-0.01978 0.350463,-0.02758 0.529297,-0.06055 0.615984,-0.125272 1.152694,-0.401999 1.589844,-0.84375 0.615984,-0.619768 0.874318,-1.344281 0.761718,-2.234375 -0.0861,-0.632955 -0.410338,-1.1146655 -0.933593,-1.4707029 -0.432183,-0.2917527 -0.89781,-0.4019614 -1.388672,-0.3886718 z m -0.119141,1.2089847 c 0.538534,-0.01758 1.012868,0.33706 1.117188,0.908203 0.01325,0.06593 0.01291,0.131084 0.01953,0.216797 -0.03312,0.567022 -0.318542,0.989441 -0.841797,1.259765 -0.351045,0.17802 -0.713833,0.197302 -1.078125,0.03906 -0.476891,-0.210985 -0.728598,-0.731818 -0.609375,-1.246094 0.145717,-0.619768 0.542219,-1.008025 1.158203,-1.146484 0.07865,-0.01813 0.157442,-0.02874 0.234375,-0.03125 z
		M 8.90625,9.0019531 C 8.754333,9.005219 8.6010611,9.0210684 8.4453125,9.0488281 7.6831387,9.1859936 7.0604034,9.5722401 6.5898437,10.179688 6.1524221,10.741413 5.9392319,11.381795 6.0253906,12.09375 c 0.072904,0.600916 0.3513545,1.083445 0.8417969,1.449219 0.5302077,0.391901 1.1336988,0.516552 1.7832031,0.43164 0.788685,-0.104507 1.4114844,-0.490817 1.8886724,-1.111328 0.291614,-0.378838 0.472018,-0.809015 0.544921,-1.279297 0.02651,-0.176356 0.02581,-0.407629 0.03906,-0.583984 H 8.7109375 C 8.6115236,11 8.5648049,11.120966 8.5449219,11.160156 8.4521354,11.32998 8.2931902,11.668611 8.2070313,11.871094 8.1606384,11.982132 8.1928519,12 8.3320313,12 h 1.2792968 c -0.066276,0.09144 -0.1180859,0.236745 -0.1777343,0.308594 -0.2982417,0.333116 -0.676276,0.490426 -1.1269532,0.43164 -0.5235799,-0.07185 -0.8879038,-0.502855 -0.8945312,-1.02539 -0.00663,-0.529067 0.2251047,-0.954793 0.6757812,-1.242188 0.3777739,-0.241672 0.7816795,-0.300138 1.1992188,-0.09766 0.1391793,0.06532 0.211133,0.137008 0.3105469,0.248047 0.086158,0.09798 0.093945,0.09253 0.1933593,0.06641 0.4109114,-0.104508 0.6957424,-0.182602 1.1132814,-0.287109 0.03728,-0.0092 0.06356,-0.02279 0.07617,-0.03906 0.0116,-0.01796 0.01012,-0.04287 -0.0098,-0.07226 C 10.805013,9.9121775 10.552435,9.5977499 10.201172,9.3691406 9.7985452,9.0997083 9.3620011,8.9921556 8.90625,9.0019531 Z"
	/>
</svg>

<?xml version="1.0" encoding="UTF-8"?>
<svg version="1.1" viewBox="0 0 16 16" xmlns="http://www.w3.org/2000/svg">
 <path id="folder" d="m6.922 3.768-0.644-0.536a1 1 0 0 0-0.64-0.232h-3.638a1 1 0 0 0-1 1v8a1 1 0 0 0 1 1h12a1 1 0 0 0 1-1v-7a1 1 0 0 0-1-1h-6.438a1 1 0 0 1-0.64-0.232" fill="#00acc1"/>
 <path id="motive" d="m4 10v0.5h2v-0.5zm-1.5 1v0.5h3v-0.5zm1.5 1v0.5h1.5v-0.5zm9.6523-2.9961c-0.16362 0.00443-0.3311 0.023065-0.5 0.052734-0.7882 0.13846-1.37 0.46861-1.8535 1.1016-0.4504 0.5868-0.65633 1.2452-0.53711 1.9902 0.07948 0.50768 0.32406 0.93718 0.71484 1.2734 0.46364 0.3956 1.0144 0.56689 1.6172 0.58008 0.17221-0.01978 0.35046-0.02758 0.5293-0.06055 0.61598-0.12527 1.1527-0.402 1.5898-0.84375 0.61598-0.61977 0.87432-1.3443 0.76172-2.2344-0.0861-0.63296-0.41034-1.1147-0.93359-1.4707-0.43218-0.29175-0.89781-0.40196-1.3887-0.38867zm-0.11914 1.209c0.53853-0.01758 1.0129 0.33706 1.1172 0.9082 0.01325 0.06593 0.01291 0.13108 0.01953 0.2168-0.03312 0.56702-0.31854 0.98944-0.8418 1.2598-0.35104 0.17802-0.71383 0.1973-1.0781 0.03906-0.47689-0.21098-0.7286-0.73182-0.60938-1.2461 0.14572-0.61977 0.54222-1.008 1.1582-1.1465 0.07865-0.01813 0.15744-0.02874 0.23438-0.03125zm-4.627-1.2109c-0.15192 0.0032659-0.30519 0.019115-0.46094 0.046875-0.76217 0.13717-1.3849 0.52341-1.8555 1.1309-0.43742 0.56172-0.65061 1.2021-0.56445 1.9141 0.072904 0.60092 0.35135 1.0834 0.8418 1.4492 0.53021 0.3919 1.1337 0.51655 1.7832 0.43164 0.78868-0.10451 1.4115-0.49082 1.8887-1.1113 0.29161-0.37884 0.47202-0.80902 0.54492-1.2793 0.02651-0.17636 0.02581-0.40763 0.03906-0.58398h-2.4121c-0.099414 0-0.14613 0.12097-0.16602 0.16016-0.092786 0.16982-0.25173 0.50846-0.33789 0.71094-0.046393 0.11104-0.014179 0.12891 0.125 0.12891h1.2793c-0.066276 0.09144-0.11809 0.23674-0.17773 0.30859-0.29824 0.33312-0.67628 0.49043-1.127 0.43164-0.52358-0.07185-0.8879-0.50286-0.89453-1.0254-0.00663-0.52907 0.2251-0.95479 0.67578-1.2422 0.37777-0.24167 0.78168-0.30014 1.1992-0.09766 0.13918 0.06532 0.21113 0.13701 0.31055 0.24805 0.086158 0.09798 0.093945 0.09253 0.19336 0.06641 0.41091-0.10451 0.69574-0.1826 1.1133-0.28711 0.03728-0.0092 0.06356-0.02279 0.07617-0.03906 0.0116-0.01796 0.01012-0.04287-0.0098-0.07226-0.16565-0.37885-0.41823-0.69327-0.7695-0.92188-0.40263-0.26943-0.83917-0.37698-1.2949-0.36719z" fill="#b2ebf2"/>
</svg>
